Simply-Orange-Circles/scalable/apps/libreoffice-base.svg

<?xml version="1.0" encoding="UTF-8" standalone="no"?>
<svg
   xmlns:dc="http://purl.org/dc/elements/1.1/"
   xmlns:cc="http://creativecommons.org/ns#"
   xmlns:rdf="http://www.w3.org/1999/02/22-rdf-syntax-ns#"
   xmlns:svg="http://www.w3.org/2000/svg"
   xmlns="http://www.w3.org/2000/svg"
   xmlns:sodipodi="http://sodipodi.sourceforge.net/DTD/sodipodi-0.dtd"
   xmlns:inkscape="http://www.inkscape.org/namespaces/inkscape"
   width="48"
   height="48"
   viewBox="0 0 12.7 12.7"
   version="1.1"
   id="svg4"
   sodipodi:docname="libreoffice-base.svg"
   inkscape:version="0.92.4 (5da689c313, 2019-01-14)">
  <metadata
     id="metadata10">
    <rdf:RDF>
      <cc:Work
         rdf:about="">
        <dc:format>image/svg+xml</dc:format>
        <dc:type
           rdf:resource="http://purl.org/dc/dcmitype/StillImage" />
        <dc:title></dc:title>
      </cc:Work>
    </rdf:RDF>
  </metadata>
  <defs
     id="defs8" />
  <sodipodi:namedview
     pagecolor="#ffffff"
     bordercolor="#666666"
     borderopacity="1"
     objecttolerance="10"
     gridtolerance="10"
     guidetolerance="10"
     inkscape:pageopacity="0"
     inkscape:pageshadow="2"
     inkscape:window-width="1087"
     inkscape:window-height="480"
     id="namedview6"
     showgrid="false"
     inkscape:zoom="4.9166667"
     inkscape:cx="2.1355932"
     inkscape:cy="24"
     inkscape:window-x="0"
     inkscape:window-y="25"
     inkscape:window-maximized="0"
     inkscape:current-layer="svg4" />
  <path
     d="m 6.344,0.073 a 6.29,6.29 0 0 0 -6.29,6.29 6.29,6.29 0 0 0 6.29,6.288 6.29,6.29 0 0 0 6.29,-6.289 6.29,6.29 0 0 0 -6.29,-6.29 z M 6.326,1.009 A 5.407,5.407 0 0 1 11.733,6.416 5.407,5.407 0 0 1 6.326,11.823 5.407,5.407 0 0 1 0.92,6.416 5.407,5.407 0 0 1 6.326,1.01 Z m 0.025,1 c -2.25,0 -3.537,0.629 -3.71,1.269 A 0.144,0.144 0 0 0 2.62,3.351 v 0.344 c 0.423,0.442 1.838,0.85 3.73,0.85 1.892,0 3.307,-0.408 3.73,-0.85 V 3.35 A 0.138,0.138 0 0 0 10.06,3.281 C 9.893,2.639 8.606,2.007 6.35,2.007 Z M 2.62,4.23 V 5.631 C 3.014,6.042 4.266,6.423 5.945,6.477 H 5.998 L 6.143,6.481 6.351,6.483 6.557,6.482 c 0.049,0 0.097,-0.002 0.146,-0.003 L 6.755,6.478 C 8.435,6.424 9.686,6.043 10.08,5.632 V 4.231 C 9.354,4.73 7.82,4.993 6.35,4.993 4.882,4.993 3.346,4.73 2.62,4.231 Z m 0,1.955 v 1.402 c 0.425,0.443 1.85,0.852 3.73,0.852 1.881,0 3.305,-0.409 3.73,-0.852 V 6.186 A 3.054,3.054 0 0 1 9.33,6.539 C 8.703,6.759 7.831,6.912 6.74,6.942 a 16.828,16.828 0 0 1 -0.78,0 C 4.865,6.912 3.992,6.757 3.364,6.537 A 3.05,3.05 0 0 1 2.62,6.186 Z m 0,1.94 v 1.223 a 0.14,0.14 0 0 0 0.017,0.067 c 0.176,0.73 1.753,1.276 3.714,1.276 1.955,0 3.529,-0.543 3.71,-1.27 A 0.148,0.148 0 0 0 10.08,9.348 V 8.126 C 9.463,8.56 8.193,8.902 6.35,8.902 4.508,8.902 3.237,8.56 2.62,8.126 Z"
     id="path2"
     inkscape:connector-curvature="0"
     style="fill:#ff7f2a" />
</svg>

<svg xmlns="http://www.w3.org/2000/svg" width="48" height="48" viewBox="0 0 12.7 12.7"><path fill="#ff7f2a" d="M6.34.07a6.29 6.29 0 0 0-6.29 6.3 6.29 6.29 0 0 0 6.3 6.28 6.29 6.29 0 0 0 6.28-6.29A6.29 6.29 0 0 0 6.34.07zm-.01.94a5.4 5.4 0 0 1 5.4 5.4 5.4 5.4 0 0 1-5.4 5.41 5.4 5.4 0 0 1-5.41-5.4A5.4 5.4 0 0 1 6.32 1zm.02 1c-2.25 0-3.54.63-3.7 1.27a.14.14 0 0 0-.03.07v.35c.42.44 1.84.85 3.73.85s3.3-.41 3.73-.85v-.35a.14.14 0 0 0-.02-.07c-.17-.64-1.45-1.27-3.71-1.27zM2.62 4.23v1.4c.4.41 1.65.8 3.33.85h.81c1.68-.06 2.93-.44 3.32-.85v-1.4c-.73.5-2.26.76-3.73.76-1.47 0-3-.26-3.73-.76zm0 1.96v1.4c.42.44 1.85.85 3.73.85s3.3-.41 3.73-.85v-1.4a3.05 3.05 0 0 1-.75.35c-.63.22-1.5.37-2.59.4a16.83 16.83 0 0 1-.78 0 8.78 8.78 0 0 1-2.6-.4 3.05 3.05 0 0 1-.74-.35zm0 1.94v1.22a.14.14 0 0 0 .02.07c.17.73 1.75 1.27 3.71 1.27s3.53-.54 3.71-1.27a.15.15 0 0 0 .02-.07V8.13c-.62.43-1.89.77-3.73.77s-3.11-.34-3.73-.77z"/></svg>
